mobile/24/svg/pin-24.svg

<svg width="24" height="24" viewBox="0 0 24 24" fill="none" xmlns="http://www.w3.org/2000/svg">
<path fill-rule="evenodd" clip-rule="evenodd" d="M12.1717 3.23768L10.7799 4.62945L14.6034 8.45298L17.869 8.52521C19.7443 8.56622 20.6552 10.8352 19.3287 12.1617L16.364 15.1265L21.9997 20.7622L20.7622 21.9997L15.1265 16.364L12.1621 19.3283C10.8353 20.6562 8.56763 19.7427 8.52525 17.8698L8.45211 14.6035L4.62897 10.7804L3.23768 12.1717L2.00024 10.9342L10.9342 2.00024L12.1717 3.23768ZM5.86641 9.54295L9.54247 5.86689L13.8626 10.187L17.831 10.2748C18.1655 10.2821 18.3288 10.6868 18.0913 10.9243L10.9239 18.0917C10.6887 18.3272 10.2824 18.1671 10.2748 17.8302L10.186 13.8625L5.86641 9.54295Z" fill="black"/>
</svg>

<svg width="24" height="24" fill="none" xmlns="http://www.w3.org/2000/svg"><path fill-rule="evenodd" clip-rule="evenodd" d="M12.172 3.238 10.78 4.629l3.823 3.824 3.266.072c1.875.041 2.786 2.31 1.46 3.637l-2.965 2.964L22 20.762 20.762 22l-5.636-5.636-2.964 2.964c-1.327 1.328-3.594.415-3.637-1.458l-.073-3.267L4.63 10.78l-1.391 1.392L2 10.934 10.934 2l1.238 1.238zM5.866 9.543l3.676-3.676 4.32 4.32 3.969.088a.38.38 0 0 1 .26.65l-7.167 7.167a.38.38 0 0 1-.65-.262l-.088-3.967-4.32-4.32z" fill="#000"/></svg>
